X:1
T:Wayman, LM
T:Wayman, LM
T:H. F. Grant, 1898
T:Public Domain Courtesy of the Cyber Hymnal™
C:H. F. Grant, 1898
Z:Public Domain
Z:Courtesy of the Cyber Hymnal™
%%score ( 1 2 ) 3
L:1/8
Q:1/4=88
M:3/4
K:E
V:1 treble 
V:2 treble 
V:3 bass 
V:1
 [EG][EG] [^^Fc] | [GB]3 [B,E] [B,E][EA] | [EG]4 [EG]2 | %3
 [DF][EG] [FA][GB] !fermata![Ad]!fermata![Ac] | [GB]3 [EG] [EG][^^Fc] | [GB][EG] [B,E]2 [EA]2 | %6
 [EG]4 [EG]2 | [EF][EG] [FB]2 !fermata![FA]2 | C2 z2 [B,D]2 | [B,E]3 |] %10
V:2
 x3 | x6 | x6 | x6 | x6 | x6 | x6 | x6 | C2 x4 | x3 |] %10
V:3
 [E,B,][E,B,] [E,^A,] | [E,B,]3 [E,G,] [E,G,][E,=C] | [E,B,]4 [E,B,]2 | %3
 [A,B,][G,B,] [F,B,][E,B,] !fermata![D,B,]!fermata![B,,B,] | [E,B,]3 [E,B,] [E,B,][E,^A,] | %5
 [E,G,][E,B,] [E,G,]2 [E,C]2 | [E,B,]4 [E,B,]2 | [A,C][G,C] [F,C]2 !fermata![F,C]2 | %8
 [B,,A,]2 z2 [B,,A,]2 | [E,G,]3 |] %10

